X:31
T:Fairies. THO5.031, The
M:2/4
L:1/8
B:Thompson's Complete Collection of 200 Favourite Dances Vol.5
F:https://www.libraryofdance.org/manuals/1780c-Thompson-Compleat-5.pdf
Z:vmp. Peter Dunk 2024
Q:1/4=120
K:D
f2 ge|f>gaa|f2 ge|fddf|
ecdB|cAB^G|cedB|(cA) A2:|
|:A>B=cc|Bg G/A/B/=c/|B>^cdd|ca A/B/c/d/|
e2 fg|f>gag|fd f/e/d/c/|dd d2:|
W:
W:The 1st Gent: set and turn the 3rd Lady ./.
W:the 1st Lady do the the same with the 3rd Gent./:
W:lead through the bottom and cast up,
W:lead through top and cast off :/.
W:hands 4 round at bottom, right and left at top :/:

